assets/Monkey/Flat/monkey_flat.svg

<svg width="32" height="32" viewBox="0 0 32 32" fill="none" xmlns="http://www.w3.org/2000/svg">
<path d="M3.70288 10.5441C3.56919 10.8368 3.5 11.1548 3.5 11.4766C3.5 11.8084 3.57356 12.136 3.71539 12.436L4.33552 13.7474C4.92824 15.4803 6.36856 16.8201 8.16189 17.2722C5.25787 19.4168 2.24491 23.2613 2.15625 28.6875C2.16667 28.9895 2.375 29.7999 3 30H6.5C6.13383 25.5449 8.97071 21.4324 11.8394 20.0629L14.9703 23.3598C12.2786 24.063 10.2351 26.6448 10.0189 29.5002C9.99809 29.7756 10.2239 30 10.5 30H21.8386C23.2157 30.0082 25 29.011 25 26.8293V26.826C25.9413 26.7875 26.8844 26.4563 27.6671 25.9229C29.0511 24.9796 30.076 23.3284 30.0151 21.1644C29.92 17.79 28.0219 15.9026 26.475 14.5198C26.3263 14.3868 26.1842 14.2612 26.0483 14.1411C25.4437 13.6067 24.9639 13.1826 24.5848 12.7149C24.1652 12.1972 23.9688 11.7374 23.9688 11.1873C23.9688 10.4101 24.3959 10.0299 24.9525 9.9147C25.5875 9.78328 26.2464 10.0364 26.568 10.5775C26.956 11.2303 27.7998 11.4449 28.4525 11.0569C29.1053 10.6689 29.32 9.82519 28.932 9.17241C27.9255 7.47909 26.0062 6.88837 24.3952 7.22175C22.7056 7.57139 21.2188 8.96456 21.2188 11.1873C21.2188 12.5435 21.7586 13.5955 22.4484 14.4465C22.9863 15.1101 23.6784 15.7196 24.2887 16.2571C24.4104 16.3643 24.5289 16.4686 24.6422 16.5699C26.0797 17.8551 27.205 19.0692 27.2662 21.2418C27.2994 22.4201 26.7696 23.2066 26.1184 23.6504C25.7323 23.9135 25.3391 24.0382 25 24.0697V21.8642C24.7937 19.2658 22.8089 13.8602 16.5203 13.0252C16.356 13.0034 16.1861 12.9961 16.0117 13.002L16.2823 12.4358C16.4256 12.136 16.5 11.808 16.5 11.4758C16.5 11.1546 16.4305 10.8372 16.2962 10.5454L15.4838 8.77962C14.6359 6.86612 12.72 5.53125 10.4923 5.53125H9.5001C7.26489 5.53125 5.34356 6.87512 4.5 8.79897L3.70288 10.5441Z" fill="#6D4534"/>
<path d="M5.53131 9.47686C5.53131 8.24821 6.52733 7.2522 7.75597 7.2522H12.2363C13.4649 7.2522 14.461 8.24821 14.461 9.47686V9.54662C14.461 10.3381 14.0476 11.0331 13.425 11.4274C13.4538 11.6075 13.4688 11.7922 13.4688 11.9805C13.4688 13.8983 11.914 15.4531 9.99614 15.4531C8.07825 15.4531 6.5235 13.8983 6.5235 11.9805C6.5235 11.7922 6.53847 11.6075 6.56729 11.4274C5.94467 11.0331 5.53131 10.3381 5.53131 9.54662V9.47686Z" fill="#E39D89"/>
<path d="M4.04309 10.9883C4.04309 10.1815 4.21819 9.41556 4.53245 8.72646C3.4102 9.03494 2.58575 10.0626 2.58575 11.2829C2.58575 12.4349 3.32057 13.4153 4.34707 13.7809C4.15014 13.2172 4.04309 12.6113 4.04309 11.9805V10.9883Z" fill="#E39D89"/>
<path d="M15.9493 11.9805C15.9493 12.6159 15.8407 13.226 15.641 13.7931C16.6859 13.4376 17.4375 12.448 17.4375 11.2829C17.4375 10.0499 16.5958 9.01352 15.4556 8.71704C15.7726 9.40858 15.9493 10.1778 15.9493 10.9883V11.9805Z" fill="#E39D89"/>
<path d="M5.5 27.5C4.11929 27.5 3 28.6193 3 30H8C8 28.6193 6.88071 27.5 5.5 27.5Z" fill="#E39D89"/>
<path d="M19.5 27.5C18.1193 27.5 17 28.6193 17 30H22C22 28.6193 20.8807 27.5 19.5 27.5Z" fill="#E39D89"/>
<path d="M9.99615 14.957C11.0921 14.957 11.9805 14.0686 11.9805 12.9727H8.01178C8.01178 14.0686 8.90021 14.957 9.99615 14.957Z" fill="#BB1D80"/>
<path d="M8.83337 11.4846C8.83337 11.1892 9.07283 10.9497 9.36822 10.9497H10.5929C10.8883 10.9497 11.1278 11.1892 11.1278 11.4846C11.1278 11.7799 10.8883 12.0194 10.5929 12.0194H9.36822C9.07283 12.0194 8.83337 11.7799 8.83337 11.4846Z" fill="#FF8687"/>
<path d="M8.01947 9.47463C8.01947 9.20387 8.23897 8.98438 8.50973 8.98438C8.78049 8.98438 8.99998 9.20387 8.99998 9.47463V10.5097C8.99998 10.7805 8.78049 11 8.50973 11C8.23897 11 8.01947 10.7805 8.01947 10.5097V9.47463Z" fill="#1C1C1C"/>
<path d="M9.45187 11.9075C9.58794 11.9075 9.69824 11.7972 9.69824 11.6612C9.69824 11.5251 9.58794 11.4148 9.45187 11.4148C9.31581 11.4148 9.20551 11.5251 9.20551 11.6612C9.20551 11.7972 9.31581 11.9075 9.45187 11.9075Z" fill="#1C1C1C"/>
<path d="M10.5312 11.9075C10.6673 11.9075 10.7776 11.7972 10.7776 11.6612C10.7776 11.5251 10.6673 11.4148 10.5312 11.4148C10.3952 11.4148 10.2849 11.5251 10.2849 11.6612C10.2849 11.7972 10.3952 11.9075 10.5312 11.9075Z" fill="#1C1C1C"/>
<path d="M11.5097 8.98438C11.239 8.98438 11.0195 9.20387 11.0195 9.47463V10.5097C11.0195 10.7805 11.239 11 11.5097 11C11.7805 11 12 10.7805 12 10.5097V9.47463C12 9.20387 11.7805 8.98438 11.5097 8.98438Z" fill="#1C1C1C"/>
</svg>

<svg xmlns="http://www.w3.org/2000/svg" width="32" height="32" fill="none"><path fill="#6D4534" d="M3.703 10.544a2.244 2.244 0 0 0 .012 1.892l.62 1.311a5.468 5.468 0 0 0 3.827 3.525c-2.904 2.145-5.917 5.99-6.006 11.416.01.302.219 1.112.844 1.312h3.5c-.366-4.455 2.47-8.568 5.34-9.937l3.13 3.297c-2.691.703-4.735 3.285-4.951 6.14-.02.276.205.5.481.5h11.339c1.377.008 3.161-.989 3.161-3.17v-.004a5.184 5.184 0 0 0 2.667-.903c1.384-.943 2.409-2.595 2.348-4.759-.095-3.374-1.993-5.261-3.54-6.644a94.15 94.15 0 0 0-.427-.379c-.604-.534-1.084-.958-1.463-1.426-.42-.518-.616-.978-.616-1.528 0-.777.427-1.157.983-1.272.635-.132 1.294.121 1.616.663a1.375 1.375 0 0 0 2.364-1.406c-1.006-1.693-2.926-2.284-4.537-1.95-1.69.35-3.176 1.743-3.176 3.965 0 1.357.54 2.409 1.23 3.26.537.663 1.23 1.273 1.84 1.81l.353.313c1.438 1.285 2.563 2.5 2.624 4.672.033 1.178-.496 1.965-1.148 2.408-.386.264-.779.388-1.118.42v-2.206c-.206-2.598-2.191-8.004-8.48-8.839a3.076 3.076 0 0 0-.508-.023l.27-.566a2.226 2.226 0 0 0 .014-1.89l-.812-1.766a5.458 5.458 0 0 0-4.992-3.249H9.5a5.458 5.458 0 0 0-5 3.268l-.797 1.745Z"/><path fill="#E39D89" d="M5.531 9.477c0-1.229.996-2.225 2.225-2.225h4.48c1.229 0 2.225.996 2.225 2.225v.07c0 .791-.413 1.486-1.036 1.88a3.473 3.473 0 1 1-6.858 0 2.223 2.223 0 0 1-1.036-1.88v-.07ZM4.043 10.988c0-.806.175-1.572.49-2.262a2.652 2.652 0 0 0-.186 5.055 5.45 5.45 0 0 1-.304-1.8v-.993ZM15.95 11.98c0 .636-.11 1.246-.309 1.813a2.652 2.652 0 0 0-.185-5.076c.317.692.493 1.46.493 2.271v.992ZM5.5 27.5A2.5 2.5 0 0 0 3 30h5a2.5 2.5 0 0 0-2.5-2.5ZM19.5 27.5A2.5 2.5 0 0 0 17 30h5a2.5 2.5 0 0 0-2.5-2.5Z"/><path fill="#BB1D80" d="M9.996 14.957a1.984 1.984 0 0 0 1.984-1.984H8.012c0 1.096.888 1.984 1.984 1.984Z"/><path fill="#FF8687" d="M8.833 11.485c0-.296.24-.535.535-.535h1.225a.535.535 0 0 1 0 1.07H9.368a.535.535 0 0 1-.535-.535Z"/><path fill="#1C1C1C" d="M8.02 9.475a.49.49 0 0 1 .98 0v1.035a.49.49 0 1 1-.98 0V9.475ZM9.452 11.908a.246.246 0 1 0 0-.493.246.246 0 0 0 0 .493ZM10.531 11.908a.246.246 0 1 0 0-.493.246.246 0 0 0 0 .493ZM11.51 8.984a.49.49 0 0 0-.49.49v1.036a.49.49 0 1 0 .98 0V9.475a.49.49 0 0 0-.49-.49Z"/></svg>
